X: 2048
T: Ask My Father
R: slide
M: 12/8
K: Gmajor
A2G|:F2D DDD A2G F2D|AAA B2G ABA A2G|F2D DDD A2G F2D|
G2B A2F G2B A2G|F2D DDD A2G F2D|AAA B2G ABA A2G|
F2D DDD A2G F2D|1 G2B A2F GGG A2G:|2 G2B A2F G3G2e||
f2d eee f2d cAG|AAA B2G AAA g2e|f2d eee f2d cAF|
G2B A2F G3G2 e|f2d eee f2d cAG|AAA B2G AAA g2e|
f2e d2e f2 g a2g|1 f2d c2A G3G2e:|2 f2d c2A G3 A2G||

